img/bimi/container-registry.com.svg

<svg xmlns="http://www.w3.org/2000/svg"><svg xmlns="http://www.w3.org/2000/svg" xmlns:xlink="http://www.w3.org/1999/xlink" xml:space="preserve" fill-rule="evenodd" stroke-linejoin="round" stroke-miterlimit="2" baseProfile="tiny-ps" version="1.2" viewBox="0 0 600 600"><g id="SvgjsG1014"><g id="SvgjsG1013"><g id="SvgjsG1012"><path id="SvgjsPath1011" fill="#D03808" fill-rule="nonzero" d="m257.318 325.866-.214 5.668-41.185 23.846-4.814-8.234L252.29 323.3l5.028 2.566Z"/><path id="SvgjsPath1010" fill="#D03808" fill-rule="nonzero" d="m76.532 424.565 4.707 8.234 43.645-25.13-4.707-8.233-43.645 25.129Z"/><path id="SvgjsPath1009" fill="#D03808" fill-rule="nonzero" d="m145.102 385.428 4.814 8.233 41.078-23.846-4.707-8.233-41.185 23.846Z"/><path id="SvgjsPath1008" fill="#D03808" fill-rule="nonzero" d="m384.082 355.38 4.814-8.234-41.185-23.846-5.028 2.566.214 5.668 41.185 23.846Z"/><path id="SvgjsPath1007" fill="#D03808" fill-rule="nonzero" d="m475.117 407.669 4.707-8.233 43.645 25.129-4.707 8.234-43.645-25.13Z"/><path id="SvgjsPath1006" fill="#D03808" fill-rule="nonzero" d="m408.9 369.815 4.814-8.233 41.185 23.846-4.814 8.233-41.185-23.846Z"/><path id="SvgjsRect1005" fill="#D03808" d="M294.652 126.117h9.52v47.585h-9.52z"/><path id="SvgjsPath1004" fill="#D03808" d="m299.466 251.762-4.814-1.924v-47.585h9.52v47.585l-4.706 1.924Z"/><path id="SvgjsRect1003" fill="#D03808" d="M294.652 47.201h9.52v50.365h-9.52z"/></g></g><g id="SvgjsG1002"><path id="SvgjsPath1001" fill="#3B3B3B" fill-rule="nonzero" d="M310.537 5.988 549.41 143.824l8.023 4.598 2.567 1.497v299.945l-2.567 1.497-8.023 4.598-119.49 68.971-101.196 58.495-7.703 4.385v-48.655l2.568-1.497 85.15-49.192 85.259-49.189 23.641-13.58V198.573L321.021 312.028V587.81l-2.567 1.497-16.046 9.196-2.567 1.497-2.568-1.497-16.046-9.196-2.567-1.497v-39.794l-.001-235.988L82.148 198.466v227.338l15.297 8.768 133.184 76.995 45.463 26.198 2.568 1.497v48.548l-7.702-4.385L169.76 524.93 50.484 455.959l-8.023-4.598L40 449.864V150.026l2.568-1.497 8.023-4.598A273559.745 273559.745 0 0 1 289.463 6.095l8.024-4.598L300.054 0l2.567 1.497 7.916 4.491ZM103.115 162.109l196.832 113.562 196.832-113.562L316.421 58.064l-16.474-9.624-32.52 18.82-2.247 1.283c-54.021 31.118-108.043 62.342-162.065 93.566Z"/></g></g></svg><style>@media (prefers-color-scheme:light){:root{filter:none}}@media (prefers-color-scheme:dark){:root{filter:invert(100%)}}</style></svg>

<?xml version="1.0" encoding="UTF-8"?><svg xmlns="http://www.w3.org/2000/svg" xmlns:xlink="http://www.w3.org/1999/xlink" xmlns:serif="http://www.serif.com/" width="100%" height="100%" viewBox="0 0 600 600" version="1.2" xml:space="preserve" baseProfile="tiny-ps" fill-rule="evenodd" stroke-linejoin="round" stroke-miterlimit="2"><title>container-registry.com</title><g id="Cross"><g><g id="g220"><g id="g250"><path id="polygon200" d="M257.318,325.866L257.104,331.534L215.919,355.38L211.105,347.146L252.29,323.3L257.318,325.866Z" fill="rgb(208,56,8)" fill-rule="nonzero"></path><path id="polygon202" d="M76.532,424.565L81.239,432.799L124.884,407.669L120.177,399.436L76.532,424.565Z" fill="rgb(208,56,8)" fill-rule="nonzero"></path><path id="polygon204" d="M145.102,385.428L149.916,393.661L190.994,369.815L186.287,361.582L145.102,385.428Z" fill="rgb(208,56,8)" fill-rule="nonzero"></path><path id="polygon206" d="M384.082,355.38L388.896,347.146L347.711,323.3L342.683,325.866L342.897,331.534L384.082,355.38Z" fill="rgb(208,56,8)" fill-rule="nonzero"></path><path id="polygon208" d="M475.117,407.669L479.824,399.436L523.469,424.565L518.762,432.799L475.117,407.669Z" fill="rgb(208,56,8)" fill-rule="nonzero"></path><path id="polygon210" d="M408.9,369.815L413.714,361.582L454.899,385.428L450.085,393.661L408.9,369.815Z" fill="rgb(208,56,8)" fill-rule="nonzero"></path><rect id="polygon212" x="294.652" y="126.117" width="9.52" height="47.585" fill="rgb(208,56,8)"></rect><path id="polygon214" d="M299.466,251.762L294.652,249.838L294.652,202.253L304.172,202.253L304.172,249.838L299.466,251.762Z" fill="rgb(208,56,8)"></path><rect id="polygon216" x="294.652" y="47.201" width="9.52" height="50.365" fill="rgb(208,56,8)"></rect></g></g><g id="g173"><path id="path171" d="M310.537,5.988L549.41,143.824L557.433,148.422L560,149.919L560,449.864L557.433,451.361L549.41,455.959L429.92,524.93L328.724,583.425L321.021,587.81L321.021,539.155L323.589,537.658L408.739,488.466L493.998,439.277L517.639,425.697L517.639,198.573L321.021,312.028L321.021,587.81L318.454,589.307L302.408,598.503L299.841,600L297.273,598.503L281.227,589.307L278.66,587.81L278.66,548.016L278.659,312.028L82.148,198.466L82.148,425.804L97.445,434.572L230.629,511.567L276.092,537.765L278.66,539.262L278.66,587.81L270.958,583.425L169.76,524.93L50.484,455.959L42.461,451.361L40,449.864L40,150.026L42.568,148.529L50.591,143.931C130.179,97.95 209.875,51.969 289.463,6.095L297.487,1.497L300.054,0L302.621,1.497L310.537,5.988ZM103.115,162.109L299.947,275.671L496.779,162.109L316.421,58.064L299.947,48.44L267.427,67.26L265.18,68.543C211.159,99.661 157.137,130.885 103.115,162.109Z" fill="rgb(59,59,59)" fill-rule="nonzero"></path></g></g></g><g id="Cube"></g></svg>
